X:1
T:Sekvensen
T:To Sekvenser (Lovsange) for St. Olav
T:1 Lux illuxit letabunda
T:Georg Reiss
C:Georg Reiss
%%score [ 1 2 3 4 ]
L:1/8
Q:1/4=66
M:4/4
K:Ab
V:1 treble nm="Soprano"
V:2 treble nm="Alto"
V:3 treble-8 nm="Tenor"
V:4 bass nm="Bass"
V:1
"^Andante" E2 F2 (FG) (FE) | A2 (3(cBA) B2 B2 | B2 A2 (BG) F2 | (AG) (FE) F2 (DC) | B,2 F2 E2 F2 | %5
w: Lux il- lu- * xit _|le- ta- * * bun- da,|lux il- lu- * stris|lux _ jo- * cun- da, _|lux dig- na pre-|
 (GEF) E E2 z2 | A2 F2 G2 E2 | F3 E E4 | F2 G2 E2 C2 | D3 C B,4 | F2 G2 E2 F2 | %11
w: co- * * ni- o.|In so- lem- ne|gau- di- um|pro- rum- pat fi-|de- li- um|sin- ce- ra de-|
 (DC) D2 !fermata!E2 z2 ||"^2" G2 A2 B2 B2 | c2 A2 B4 | c2 e2 (dc) (BA) | (GF) A2 B4 | %16
w: vo- * ti- o|Glo- ri- o- sus|ho- di- e|Chri- sti mar- * tir _|glo- * ri- e|
 (3(BcB) E2 (FE) (3(DCB,) | D3 E E2 z2 | G2 A2 B2 B2 | c2 A2 B4 | c2 e2 (dc) (BA) | (GF) A2 B4 | %22
w: sub- * * li- ma- * tus _ _|so- li- o.|Pro e- ter- nis|bre- vi- a|com- mu- ta- * vit _|gau- * di- a|
 (3(BcB) E2 (FE) (3(DCB,) | D3 E !fermata!E2 z2 ||[M:3/4]"^3" B2 (GF) G2 | E2 (3(FED) E2 | %26
w: fe- * * li- ci _ com- * *|mer- ci- o.|In- sig- * nis|mar- ti- * * ris|
 A2 (BA) (FE) | A3 B B2 | c2 e2 c2 | d2 (cB) A2 | c2 d2 (3(cBc) | A3 B !fermata!B2 | B2 (GF) G2 | %33
w: in- sig- * nis _|glo- ri- a|dul- cis est|gau- di- * i|dul- cis ma- * *|te- ri- a.|In- si- * ste|
 E2 (FE) (DE) | A2 (BA) (FE) | A3 B B2 | c2 e2 c2 | d2 (cB) A2 | c2 d2 (3(cBc) | %39
w: can- ti- * cis _|ma- ter _ ec- *|cle- si- a|ce- le- sti|ju- bi- * lo|tan- ge ce- * *|
 A3 B !fermata!B2 ||[M:4/4]"^4" B2 A2 B2 G2 | A2 (3(FED) E2 E2 | A2 (FE) A2 B2 | c2 A2 B2 B2 | %44
w: le- sti- a.|In- ter cu- ras|ab- so- * * lu- tus|rex O- * la- vus|con- sti- tu- tus|
 c2 e2 d2 (3(cBc) | A3 B B2 z2 | B2 A2 B2 G2 | A2 (3(FED) E2 E2 | A2 (FE) A2 B2 | c2 A2 B2 B2 | %50
w: in reg- ni fa- * *|sti- gi- o.|Su- spi- ra- bat|in e- * * ter- na|pre- vo- * la- bat|in su- per- na|
 c2 e2 d2 (3(cBc) | A3 B B2 z2 ||"^5" E2 B2 A2 (Bc) | e2 d2 (3(cBc) B2 | B2 A2 B2 G2 | %55
w: men- tis de- si- * *|de- ri- o.|Chri- sti trac- tus _|in o- do- * * re|Chri- sti lan- guens|
 A2 (FE) A2 B2 | e2 d2 c2 A2 | B2 c2 B2 (3(GFG) | B2 B2 c2 A2 | B2 c2 B2 E2 | F2 G2 A2 (3(FEF) | %61
w: in a- * mo- re|vi- res su- mens|e lan- guo- re _ _|cor- de vo- tis|fac- tis o- re,|quem a- ma- bat _ _|
 D3 E E2 z2 | E2 B2 A2 (Bc) | e2 d2 (3(cBc) B2 | B2 A2 B2 G2 | A2 (FE) A2 B2 | e2 d2 c2 A2 | %67
w: co- lu- it.|Hic nec mi- nis _|nec ti- mo- * * re|mor- tis frac- tus|nec la- * bo- re|i- do- lo- rum|
 B2 c2 B2 (3(GFG) | B2 B2 c2 A2 | B2 c2 B2 E2 | F2 G2 A2 (3(FEF) | D3 E !fermata!E2 z2 || %72
w: ab er- ro- re _ _|mul- to qui- dem|cum su- do- re|gen- tem su- am _ _|e- ru- it.|
[M:3/4]"^6" B2 A2 c2 | d2 B2 B2 | e2 f2 d2 | e2 (cB) A2 | e2 d2 c2 | B2 B2 G2 | B2 d2 c2 | %79
w: Tu- lit ab|im- pi- a|gen- te lu-|di- bri- * a,|mi- nas et|o- di- a,|pe- nas, ex-|
 A2 A2 (3(FEF) | E2 G2 E2 | G2 B2 !fermata!B2 | B2 A2 c2 | d2 B2 B2 | e2 f2 d2 | e2 (cB) A2 | %86
w: i- li- a, _ _|sed men- te|sta- bi- li,|mi- ra con-|stan- ti- a|de- vi- cit|om- ni- * a,|
 e2 d2 c2 | B2 B2 G2 | B2 d2 c2 | A2 A2 (3(FEF) | E2 G2 E2 | G3 B !fermata!B2 || %92
w: fe- lix fe-|li- ci- a|mi- grans ad|gau- di- a _ _|cum pal- ma|no- bi- li.|
[M:4/4]"^7" B2 B2 c2 d2 | (ed) (cB) (3(dcd) B2 | e2 e2 f2 d2 | e2 c2 B2 (3(GFG) | %96
w: An- te di- em|pas- * si- * o- * * nis|ad in- stan- tis|vim a- go- nis _ _|
 E2 (FG) (AG) (FE) | (3(DCD) B,2 (CD) E2 | F2 (GA) F2 E2 | D3 E E4 | B2 B2 c2 d2 | %101
w: a- ni- * ma- * tus _|vi- * * si- o- * nis|di- vi- * ne so-|la- ci- o.|Quod a- ma- bat|
 e2 d2 (3(cBc) B2 | e2 e2 f2 d2 | e2 c2 B2 G2 | E2 (FG) (AG) (FE) | (3(DCD) B,2 (CD) E2 | %106
w: pre- gu- sta- * * vit|pre- gu- sta- tum|plus op- ta- vit|plus op- * ta- * tum _|ven- * * di- ca- * vit|
 F2 (GA) F2 E2 | D3 E !fermata!E2 z2 ||"^8" E2 E2 F2 E2 | G2 A2 B2 B2 | c2 d2 c2 B2 | %111
w: il- lu- * stri mar-|ti- ri- o.|Rex et mar- tir|tri- um- pha- lis|tu- tor no- ster|
 c2 (AG) B2 B2 | E2 G2 B2 B2 | c2 A2 B2 B2 | c2 d2 c2 A2 | B2 c2 B2 (3(GFG) | B2 G2 A2 (FE) | %117
w: spe- ci- * a- lis|tu- a pro- les|spi- ri- ta- lis|sit ab hu- jus|mun- di ma- lis _ _|te tu- en- te _|
 D3 E E4 | E2 E2 F2 E2 | G2 A2 B2 B2 | c2 d2 c2 B2 | c2 (AG) B2 B2 | E2 G2 B2 B2 | c2 (AG) B2 B2 | %124
w: li- be- ra.|Quos in- fe- stat|vis car- na- lis|cor- rup- te- la|ge- ne- * ra- lis|pe- stis po- tens|et le- * ta- lis|
 c2 d2 c2 A2 | B2 c2 B2 (3(GFG) | B2 G2 A2 (FE) | D3 E !fermata!E4 ||"^rit." (E2 F2 E4) | %129
w: nos sub tu- is|tu- tos a- lis _ _|tu- a sal- vet _|dex- te- ra.|A- * *|
 (D2 !fermata!E6) |] %130
w: men. _|
V:2
 B,2 D2 D3 B, | E2 E2 E2 E2 | D2 C2 D2 D2 | E2 C2 C2 (B,A,) | B,2 D2 B,2 D2 | (E2 D) B, B,2 z2 | %6
w: Lux il- lu- xit|le- ta- bun- da,|lux il- lu- stris|lux jo- cun- da, _|lux dig- na pre-|co- * ni- o.|
 E2 D2 E2 E2 | E2 D2 (C2 B,2) | C2 C2 C2 C2 | (C2 B,) A, (G,2 B,2) | B,2 B,2 (B,A,) A,2 | %11
w: In so- lem- ne|gau- di- um _|pro- rum- pat fi-|de- * li- uim _|sin- ce- ra _ de-|
 B,2 A,2 !fermata!B,2 z2 || E2 E2 E2 E2 | E2 E2 E4 | E2 E2 F2 F2 | (ED) E2 E4 | D2 B,2 (DC) B,2 | %17
w: vo- ti- o|Glo- ri- o- sus|ho- di- e|Chri- sti mar- tir|glo- * ri- e|sub- li- ma- * tus|
 A,3 B, B,2 z2 | E2 E2 E2 E2 | E2 E2 E4 | E2 E2 F2 F2 | (ED) E2 E4 | D2 B,2 (DC) B,2 | %23
w: so- li- o.|Pro e- ter- nis|bre- vi- a|com- mu- ta- vit|gau- * di- a|fe- li- ci _ com-|
 A,3 B, !fermata!B,2 z2 ||[M:3/4] B,2 B,2 B,2 | B,2 D2 C2 | E2 F2 (DB,) | E3 E E2 | E2 E2 E2 | %29
w: mer- ci- o.|In- sig- nis|mar- ti- ris|in- sig- nis _|glo- ri- a|dul- cis est|
 D2 (ED) C2 | E2 F2 E2 | E3 E !fermata!E2 | B,2 B,2 B,2 | B,2 (DB,) (A,B,) | E2 F2 (DB,) | %35
w: gau- di- * i|dul- cis ma-|te- ri- a.|In- si- ste|can- ti- * cis _|ma- ter ec- *|
 E3 E E2 | E2 E2 E2 | D2 (ED) C2 | E2 F2 E2 | E3 E !fermata!E2 ||[M:4/4] D2 C2 E2 E2 | %41
w: cle- si- a|ce- le- sti|ju- bi- * lo|tan- ge ce-|le- sti- a.|In- ter cu- ras|
 E2 D2 B,2 B,2 | E2 (DB,) E2 E2 | E2 E2 E2 E2 | E2 E2 F2 E2 | C3 E E2 z2 | D2 C2 E2 E2 | %47
w: ab- so- lu- tus|rex O- * la- vus|con- sti- tu- tus|in reg- ni fa-|sti- gi- o.|Su- spi- ra- bat|
 E2 D2 B,2 B,2 | E2 (DB,) E2 E2 | E2 E2 E2 E2 | E2 E2 F2 E2 | C3 E E2 z2 || E2 F2 C2 E2 | %53
w: in e- ter- na|pre- vo- * la- bat|in su- per- na|men- tis de- si-|de- ri- o.|Chri- sti trac- tus|
 E2 F2 E2 E2 | D2 C2 F2 E2 | E2 C2 E2 E2 | E2 F2 E2 C2 | F2 E2 F2 E2 | E2 E2 E2 E2 | E2 E2 E2 E2 | %60
w: in o- do- re|Chri- sti lan- guens|in a- mo- re|vi- res su- mens|e lan- guo- re|cor- de vo- tis|fac- tis o- re,|
 (ED) E2 E2 D2 | D3 B, B,2 z2 | E2 F2 C2 E2 | E2 F2 E2 E2 | D2 C2 F2 E2 | E2 C2 E2 E2 | %66
w: quem _ a- ma- bat|co- lu- it.|Hic nec mi- nis|nec ti- mo- re|mor- tis frac- tus|nec la- bo- re|
 E2 F2 E2 C2 | F2 E2 F2 E2 | E2 E2 E2 E2 | E2 E2 E2 E2 | (ED) E2 E2 D2 | D3 B, !fermata!B,2 z2 || %72
w: i- do- lo- rum|ab er- ro- re|mul- to qui- dem|cum su- do- re|gen- * tem su- am|e- ru- it.|
[M:3/4] D2 C2 F2 | F2 F2 G2 | G2 F2 F2 | E2 E2 F2 | E2 F2 F2 | F2 E2 E2 | F2 F2 =E2 | F2 _E2 D2 | %80
w: Tu- lit ab|im- pi- a|gen- te lu-|di- bri- a,|mi- nas et|o- di- a,|pe- nas, ex-|i- li- a,|
 B,2 E2 E2 | E3 F !fermata!F2 | G2 F2 F2 | F2 F2 G2 | G2 F2 F2 | E2 E2 F2 | E2 F2 F2 | F2 E2 E2 | %88
w: sed men- te|sta- bi- li,|mi- ra con-|stan- ti- a|de- vi- cit|om- ni- a,|fe- lix, fe-|li- ci- a|
 F2 F2 =E2 | F2 _E2 D2 | B,2 E2 E2 | E3 F !fermata!F2 ||[M:4/4] F2 G2 G2 F2 | E2 E2 F2 E2 | %94
w: mi- grans ad|gau- di- a|cum pal- ma|no- bi- li.|An- te di- em|pas- si- o- nis|
 E2 G2 F2 F2 | G2 G2 F2 E2 | (B,C) (DE) E2 C2 | B,2 B,2 A,2 A,2 | E2 E2 (ED) B,2 | D3 B, B,4 | %100
w: ad in- stan- tis|vim a- go- nis|a- * ni- * ma- tus|vi- si- o- nis|di- vi- ne _ so-|la- ci- o.|
 D2 E2 G2 F2 | E2 F2 E2 E2 | E2 G2 F2 F2 | G2 G2 F2 E2 | (B,C) (DE) E2 C2 | B,2 B,2 A,2 A,2 | %106
w: Quod a- ma- bat|pre- gu- sta- vit|pre- gu- sta- tum|plus op- ta- vit|plus _ op- * ta- tum|ven- di- ca- vit|
 D2 E2 (ED) B,2 | D3 B, !fermata!B,2 z2 || C2 C2 D2 C2 | B,2 E2 E2 =D2 | E2 F2 E2 E2 | %111
w: il- lu- stri _ mar-|ti- ri- o.|Rex et mar- tir|tri- um- pha- lis|tu- tor no- ster|
 E2 E2 E2 =D2 | B,2 E2 E2 =D2 | C2 E2 E2 E2 | E2 F2 F2 F2 | F2 E2 E2 _D2 | F2 E2 E2 (DB,) | %117
w: spe- ci- a- lis|tu- a pro- les|spi- ri- ta- lis|sit ab hu- jus|mun- di ma- lis|te tu- en- te _|
 D3 B, B,4 | C2 C2 D2 C2 | B,2 E2 E2 =D2 | E2 F2 E2 E2 | E2 E2 E2 =D2 | B,2 E2 E2 =D2 | %123
w: li- be- ra.|Quos in- fe- stat|vis car- na- lis|cor- rup- te- la|ge- ne- ra- lis|pe- stis po- tens|
 C2 (E_D) F2 E2 | E2 F2 F2 F2 | F2 E2 E2 D2 | F2 E2 E2 (DB,) | D3 B, !fermata!B,4 || (C6 B,2) | %129
w: et le- * ta- lis|nos sub tu- is|tu- tos a- lis|tu- a sal- vet _|dex- te- ra.|A- *|
 !fermata!B,8 |] %130
w: men.|
V:3
 G2 A2 B2 (AG) | A2 A2 A2 G2 | F2 F2 (FG) (AB) | c2 c2 A2 F2 | F2 F2 G2 A2 | (B A2) G G2 z2 | %6
w: Lux il- lu- xit _|le- ta- bun- da,|lux il- lu- * stris _|lux jo- cun- da,|lux dig- na pre-|co- * ni- o.|
 c2 A2 B2 A2 | A3 B (A2 B2) | A2 G2 A2 A2 | F2 F2 G4 | F2 E2 E2 D2 | F2 F2 !fermata!G2 z2 || %12
w: In so- lem- ne|gau- di- um _|pro- rum- pat fi-|de- li- um|sin- ce- ra de-|vo- ti- o|
 B2 A2 A2 G2 | A2 A2 (AF G2) | A2 A2 A2 B2 | B2 A2 (A2 G2) | F2 G2 (A_G) (3(FED) | F3 =G G2 z2 | %18
w: Glo- ri- o- sus|ho- di- e _ _|Chri- sti mar- tir|glo- ri- e _|sub- li- ma- * tus _ _|so- li- o.|
 B2 A2 A2 G2 | A2 A2 (AF G2) | A2 A2 A2 B2 | B2 A2 (A2 G2) | F2 G2 (A_G) (3(FED) | %23
w: Pro e- ter- nis|bre- vi- a _ _|com- mu- ta- vit|gau- di- a _|fe- li- ci _ com- * *|
 F3 =G !fermata!G2 z2 ||[M:3/4] G2 (BA) B2 | G2 (3(AGF) A2 | A2 F2 (AG) | A3 G G2 | A2 A2 A2 | %29
w: mer- ci- o.|In- sig- * nis|mar- ti- * * ris|in- sig- nis _|glo- ri- a|dul- cis est|
 A2 G2 A2 | A2 A2 G2 | A3 G !fermata!G2 | G2 (BA) B2 | G2 (AG) (FG) | A2 F2 (AG) | A3 G G2 | %36
w: gau- di- i|dul- cis ma-|te- ri- a.|In- si- * ste|can- ti- * cis _|ma- ter ec- *|cle- si- a|
 A2 A2 A2 | A2 G2 A2 | A2 A2 G2 | A3 G !fermata!G2 ||[M:4/4] F2 F2 G2 B2 | A2 A2 A2 G2 | %42
w: ce- le- sti|ju- bi- lo|tan- ge ce-|le- sti- a.|In- ter cu- ras|ab- so- lu- tus|
 A2 (AG) A2 G2 | A2 A2 A2 G2 | A2 A2 A2 G2 | A3 G G2 z2 | F2 F2 G2 B2 | A2 A2 A2 G2 | %48
w: rex O- * la- vus|con- sti- tu- tus|in reg- ni fa-|sti- gi- o.|Su- spi- ra- bat|in e- ter- na|
 A2 (AG) A2 G2 | A2 A2 A2 G2 | A2 A2 A2 G2 | A3 G G2 z2 || G2 F2 F2 G2 | A2 A2 A2 G2 | %54
w: pre- vo- * la- bat|in su- per- na|men- tis de- si-|de- ri- o.|Chri- sti trac- tus|in o- do- re|
 F2 F2 F2 B2 | A2 A2 A2 G2 | A2 A2 G2 A2 | F2 G2 B2 B2 | G2 G2 A2 A2 | (AG) A2 A2 G2 | %60
w: Chri- sti lan- guens|in a- mo- re|vi- res su- mens|e lan- guo- re|cor- de vo- tis|fac- * tis o- re|
 A2 B2 A2 A2 | A3 G G2 z2 | G2 F2 F2 G2 | A2 A2 A2 G2 | F2 F2 F2 B2 | A2 A2 A2 G2 | A2 A2 G2 A2 | %67
w: quem a- ma- bat|co- lu- it.|Hic nec mi- nis|nec ti- mo- re|mor- tis frac- tus|nec la- bo- re|i- do- lo- rum|
 F2 G2 B2 B2 | G2 G2 A2 A2 | (AG) A2 A2 G2 | A2 B2 A2 A2 | A3 G !fermata!G2 z2 ||[M:3/4] F2 F2 F2 | %73
w: ab er- ro- re|mul- to qui- dem|cum _ su- do- re|gen- tem su- am|e- ru- it.|Tu- lit ab|
 F2 B2 B2 | (cB) A2 (BA) | G2 A2 A2 | A2 A2 A2 | A2 G2 B2 | B2 (BA) G2 | (FG) A2 A2 | (AG) B2 G2 | %81
w: im- pi- a|gen- * te lu- *|di- bri- a,|mi- nas et|o- di- a,|pe- nas, _ ex-|i- * li- a,|sed _ men- te|
 c3 =d !fermata!d2 | (e_d) c2 c2 | B2 B2 B2 | (cB) A2 (BA) | G2 A2 A2 | A2 A2 A2 | A2 G2 B2 | %88
w: sta- bi- li,|mi- * ra con-|stan- ti- a|de- * vi- cit _|om- ni- a,|fe- lix, fe-|li- ci- a|
 B2 (BA) G2 | (FG) A2 A2 | (AG) B2 G2 | c3 =d !fermata!d2 ||[M:4/4] =d2 e2 c2 A2 | A2 (AG) A2 G2 | %94
w: mi- grans _ ad|gau- * di- a|cum _ pal- ma|no- bi- li.|An- te di- em|pas- si- * o- nis|
 G2 c2 A2 B2 | B2 c2 d2 B2 | G2 (AB) A2 (AG) | F2 F2 E2 E2 | A2 (BA) A2 G2 | A3 G G4 | %100
w: ad in- stan- tis|vim a- go- nis|a- ni- * ma- tus _|vi- si- o- nis|di- vi- * ne so-|la- ci- o.|
 F2 G2 G2 A2 | A2 A2 A2 G2 | G2 c2 A2 B2 | B2 c2 d2 B2 | G2 (AB) A2 (AG) | F2 F2 E2 E2 | %106
w: Quod a- ma- bat|pre- gu- sta- vit|pre- gu- sta- tum|plus op- ta- vit|plus op- * ta- tum _|ven- di- ca- vit|
 A2 (BA) A2 G2 | A3 G !fermata!G2 z2 || G2 A2 A2 A2 | G2 E2 F2 F2 | A2 A2 A2 G2 | G2 (Ac) F2 F2 | %112
w: il- lu- * stri mar-|ti- ri- o.|Rex et mar- tir|tri- um- pha- lis|tu- tor no- ster|spe- ci- * a- lis|
 G2 E2 F2 F2 | G2 A2 A2 G2 | A2 A2 A2 c2 | B2 G2 G2 B2 | B2 B2 A2 (AG) | A3 G G4 | G2 A2 A2 A2 | %119
w: tu- a pro- les|spi- ri- ta- lis|sit ab hu- jus|mun- di ma- lis|te tu- en- te _|li- be- ra.|Quos in- fe- stat|
 G2 E2 F2 F2 | A2 A2 A2 G2 | G2 (Ac) F2 F2 | G2 E2 F2 F2 | G2 (AB) (BA) G2 | A2 A2 A2 c2 | %125
w: vis car- na- lis|cor- rup- te- la|ge- ne- * ra- lis|pe- stis po- tens|et le- * ta- * lis|nos sub tu- is|
 B2 G2 G2 B2 | B2 B2 A2 (AG) | A3 G !fermata!G4 || (G2 FG A2 G2) | (F2 !fermata!G6) |] %130
w: tu- tos a- lis|tu- a sal- vet _|dex- te- ra.|A- * * * *|men. _|
V:4
 E,2 D,2 B,,3 E, | C,2 (3(A,,B,,C,) E,2 E,2 | B,,2 F,,2 B,,2 D,2 | C,2 A,,2 F,,2 (B,,C,) | %4
w: Lux il- lu- xit|le- ta- * * bun- da,|lux il- lu- stris|lux jo- cun- da, _|
 D,2 B,,2 E,2 D,2 | (D,C,D,) E, E,2 z2 | A,,2 D,2 D,2 C,2 | (D,E,F,) G, (A,2 G,2) | %8
w: lux dig- na pre-|co- * * ni- o.|In so- lem- ne|gau- * * di- um _|
 F,2 E,2 (A,,C,) F,2 | B,,3 C,/D,/ E,4 | D,2 E,2 C,2 D,2 | B,,2 F,2 !fermata!E,2 z2 || %12
w: pro- rum- pat _ fi-|de- li- * um|sin- ce- ra de-|vo- ti- o|
 (E,D,) C,2 E,2 E,2 | (A,,B,,) (C,D,) E,4 | (A,,B,,) C,2 D,2 D,2 | D,2 C,2 E,4 | %16
w: Glo- * ri- o- sus|ho- * di- * e|Chri- * sti mar- tir|glo- ri- e|
 B,,2 E,2 (D,A,,) B,,2 | F,3 E, E,2 z2 | (E,D,) C,2 E,2 E,2 | (A,,B,,) (C,D,) E,4 | %20
w: sub- li- ma- * tus|so- li- o.|Pro _ e- ter- nis|bre- * vi- * a|
 (A,,B,,) C,2 D,2 D,2 | D,2 C,2 E,4 | B,,2 E,2 (D,A,,) B,,2 | F,3 E, !fermata!E,2 z2 || %24
w: com- * mu- ta- vit|gau- di- a|fe- li- ci _ com-|mer- ci- o.|
[M:3/4] E,2 E,2 E,2 | E,2 D,2 A,,2 | C,2 D,2 D,2 | C,3 E, E,2 | A,,2 C,2 A,,2 | B,,2 E,2 F,2 | %30
w: In- sig- nis|mar- ti- ris|in- sig- nis|glo- ri- a|dul- cis est|gau- di- i|
 C,2 B,,2 E,2 | C,3 E, !fermata!E,2 | E,2 E,2 E,2 | E,2 D,2 D,2 | C,2 D,2 D,2 | C,3 E, E,2 | %36
w: dul- cis ma-|te- ri- a|In- si ste|can- ti- cis|ma- ter ec-|cle- si- a|
 A,,2 C,2 A,,2 | B,,2 E,2 F,2 | C,2 B,,2 E,2 | C,3 E, !fermata!E,2 ||[M:4/4] B,,2 F,2 E,2 E,2 | %41
w: ce- le- sti|ju- bi- lo|tan- ge ce-|le- sti- a|In- ter cu- ras|
 C,2 (3(D,E,F,) E,2 E,2 | C,2 D,2 C,2 E,2 | A,,2 C,2 E,2 E,2 | A,,2 C,2 B,,2 E,2 | F,3 E, E,2 z2 | %46
w: ab- so- * * lu- tus|rex O- la- vus|con- sti- tu- tus|in reg- ni fa-|sti- gi- o.|
 B,,2 F,2 E,2 E,2 | C,2 (3(D,E,F,) E,2 E,2 | C,2 D,2 C,2 E,2 | A,,2 C,2 E,2 E,2 | %50
w: Su- spi- ra- bat|in e- * * ter- na|pre- vo- la- bat|in su- per- na|
 A,,2 C,2 B,,2 E,2 | F,3 E, E,2 z2 || C,2 D,2 F,2 E,2 | C,2 D,2 E,2 E,2 | B,,2 F,2 D,2 (E,D,) | %55
w: men- tis de- si-|de- ri- o.|Chri- sti trac- tus|in o- do- re|Chri- sti lan- guens _|
 C,2 A,,2 C,2 (E,D,) | C,2 D,2 E,2 F,2 | D,2 C,2 =D,2 E,2 | (E,_D,) (C,B,,) A,,2 C,2 | %59
w: in a- mo- re _|vi- res su- mens|e lan- guo- re|cor- * de _ vo- tis|
 E,2 (C,D,) E,2 E,2 | D,2 D,2 C,2 D,2 | F,3 E, E,2 z2 | C,2 D,2 F,2 E,2 | C,2 D,2 E,2 E,2 | %64
w: fac- tis _ o- re|quem a- ma- bat|co- lu- it.|Hic nec mi- nis|nec ti- mo- re|
 B,,2 F,2 D,2 (E,D,) | C,2 A,,2 C,2 (E,D,) | C,2 D,2 E,2 F,2 | D,2 C,2 =D,2 E,2 | %68
w: mor- tis frac- tus _|nec la- bo- re _|i- do- lo- rum|ab er- ro- re|
 (E,D,) (C,B,,) A,,2 C,2 | E,2 (C,D,) E,2 E,2 | D,2 D,2 C,2 D,2 | F,3 E, !fermata!E,2 z2 || %72
w: mul- * to _ qui- dem|cum su- * do- re|gen- tem su- am|e- ru- it.|
[M:3/4] B,,2 F,,2 A,,2 | B,,2 D,2 E,2 | C,2 (D,C,) B,,2 | (C,B,,) A,,2 D,2 | C,2 (D,E,) F,2 | %77
w: Tu- lit ab|im- pi- a|gen- te _ lu-|di- * bri- a,|mi- nas _ et|
 D,2 E,2 E,2 | D,2 B,,2 C,2 | D,2 C,2 D,2 | E,2 E,2 E,2 | C,3 B,, !fermata!B,,2 | E,2 F,2 A,2 | %83
w: o- di- a,|pe- nas, ex-|i- li- a,|sed men- te|sta- bi- li,|mi- ra con-|
 B,2 D,2 E,2 | C,2 (D,C,) B,,2 | (C,B,,) A,,2 D,2 | C,2 (D,E,) F,2 | D,2 E,2 E,2 | D,2 B,,2 C,2 | %89
w: stan- ti- a|de- vi- * cit|om- * ni- a,|fe- lix, _ fe-|li- ci- a|mi- grans ad|
 D,2 C,2 D,2 | E,2 E,2 E,2 | C,3 B,, !fermata!B,,2 ||[M:4/4] B,,2 E,2 E,2 D,2 | %93
w: gau- di- a|cum pal- ma|no- bi- li.|An- te di- em|
 (C,B,,) (A,,E,) D,2 E,2 | C,2 E,2 D,2 B,,2 | E,2 E,2 D,2 E,2 | E,2 D,2 C,2 A,,2 | %97
w: pas- * si- * o- nis|ad in- stan- tis|vim a- go- nis|a- ni- ma- tus|
 B,,2 D,2 A,,2 C,2 | D,3 C, D,2 E,2 | F,3 E, E,4 | B,,2 E,2 E,2 D,2 | C,2 D,2 E,2 E,2 | %102
w: vi- si- o- nis|di- vi- ne so-|la- ci- o.|Quod a- ma- bat|pre- gu- sta- vit|
 C,2 E,2 D,2 B,,2 | E,2 E,2 D,2 E,2 | E,2 D,2 C,2 A,,2 | B,,2 D,2 A,,2 C,2 | D,3 C, D,2 E,2 | %107
w: pre- gu- sta- tum|plus op- ta- vit|plus op- ta- tum|ven- di- ca- vit|il- lu- stri mar-|
 F,3 E, !fermata!E,2 z2 || C,2 A,,2 D,2 A,,2 | E,2 C,2 B,,2 B,,2 | A,,2 D,2 A,,2 E,2 | %111
w: ti- ri- o.|Rex et mar- tir|tri- um- pha- lis|tu- tor no- ster|
 C,2 C,2 B,,2 B,,2 | E,2 C,2 B,,2 B,,2 | E,2 C,2 E,2 E,2 | A,,2 (D,E,) F,2 (F,E,) | %115
w: spe- ci- a- lis|tu- a pro- les|spi- ri- ta- lis|sit ab _ hu- jus _|
 D,2 C,2 E,2 B,,2 | D,2 (E,D,) C,2 (D,E,) | F,3 E, E,4 | C,2 A,,2 D,2 A,,2 | E,2 C,2 B,,2 B,,2 | %120
w: mun- di ma- list|te tu- * en- te _|li- be- ra.|Quos in- fe- stat|vis car- na- lis|
 A,,2 D,2 A,,2 E,2 | C,2 C,2 B,,2 B,,2 | E,2 C,2 B,,2 B,,2 | E,2 (C,B,,) D,2 E,2 | %124
w: cor- rup- te- la|ge- ne- ra- lis|pe- stis po- tens|et le- * ta- lis|
 A,,2 (D,E,) F,2 (F,E,) | D,2 C,2 E,2 B,,2 | D,2 (E,D,) C,2 (D,E,) |"_2." F,3 E, !fermata!E,4 || %128
w: nos sub _ tu- is _|tu- tos a- lis|tu- a _ sal- vet _|dex- te- ra.|
 (C,2 A,,4 E,2) | (B,,2 !fermata!E,6) |] %130
w: A- * *|men. _|

